static/skills/backend.svg

<svg xmlns="http://www.w3.org/2000/svg" style="isolation:isolate" viewBox="0 0 512 512" width="512pt" height="512pt">
    <defs>
        <clipPath id="a">
            <path d="M0 0h512v512H0z"/>
        </clipPath>
    </defs>
    <g clip-path="url(#a)">
        <path d="M130 34.712h217.119v200.027l-80.098 54.845L88.255 412.03C35.493 406.129 0 394.761 0 381.831V34.712h130Z" fill="#7383BF"/>
        <path d="M347.119 147.525v87.214l-80.098 54.845c-31.009 3.774-62.224 5.6-93.462 5.467C77.668 295.051 0 279.517 0 260.339V147.525c0 19.179 77.668 34.712 173.559 34.712 95.892 0 173.56-15.533 173.56-34.712Z" fill="#556080"/>
        <path d="M242.731 149.53c-4.792.201-8.841-3.521-9.042-8.313-.201-4.793 3.521-8.842 8.313-9.043 22.992-1.674 45.816-5.155 68.261-10.413 4.633-1.154 9.328 1.651 10.507 6.277 1.179 4.626-1.6 9.336-6.22 10.54-23.367 5.502-47.131 9.155-71.072 10.926l-.747.026ZM34.712 147.525c-4.793 0-8.678-3.885-8.678-8.678v-17.355c0-4.793 3.885-8.678 8.678-8.678 4.793 0 8.678 3.885 8.678 8.678v17.355c0 4.793-3.885 8.678-8.678 8.678Z" fill="#556080"/>
        <path d="M34.712 260.339c-4.793 0-8.678-3.885-8.678-8.678v-17.356c0-4.793 3.885-8.678 8.678-8.678 4.793 0 8.678 3.885 8.678 8.678v17.356c0 4.793-3.885 8.678-8.678 8.678Z" fill="#424A60"/>
        <path d="M34.712 373.153c-4.793 0-8.678-3.886-8.678-8.678v-17.356c0-4.793 3.885-8.678 8.678-8.678 4.793 0 8.678 3.885 8.678 8.678v17.356c0 4.792-3.885 8.678-8.678 8.678Z" fill="#556080"/>
        <path d="M337.955 234.305c48.709 0 89.174 39.051 96.325 89.8 39.398 7.02 69.545 44.257 69.545 89.01 0 49.742-37.245 90.25-83.039 90.25H156.403c-38.383-.043-69.623-33.974-69.623-75.671 0-41.698 31.24-75.629 69.623-75.629h1.414c5.65-40.873 38.184-72.322 77.382-72.322 7.054.003 14.071 1.034 20.827 3.063 16.74-29.587 47.937-48.056 81.929-48.501Z" fill="#F0C419"/>
        <ellipse vector-effect="non-scaling-stroke" cx="173.55932203" cy="34.71186441" rx="173.55932203" ry="34.71186441" fill="#7FABDA"/>
    </g>
</svg>

<?xml version="1.0" encoding="UTF-8" standalone="no"?>
<!-- Generator: Gravit.io -->
<svg xmlns="http://www.w3.org/2000/svg" xmlns:xlink="http://www.w3.org/1999/xlink" style="isolation:isolate" viewBox="0 0 512 512" width="512pt" height="512pt"><defs><clipPath id="_clipPath_uRoEpRaSsNY277cuS4gtnOnft116XVay"><rect width="512" height="512"/></clipPath></defs><g clip-path="url(#_clipPath_uRoEpRaSsNY277cuS4gtnOnft116XVay)"><g><path d=" M 130 34.712 L 347.119 34.712 L 347.119 234.739 L 267.021 289.584 L 88.255 412.03 C 35.493 406.129 0 394.761 0 381.831 L 0 34.712 L 130 34.712 Z " fill="rgb(115,131,191)"/><path d=" M 347.119 147.525 L 347.119 234.739 L 267.021 289.584 C 236.012 293.358 204.797 295.184 173.559 295.051 C 77.668 295.051 0 279.517 0 260.339 L 0 147.525 C 0 166.704 77.668 182.237 173.559 182.237 C 269.451 182.237 347.119 166.704 347.119 147.525 Z " fill="rgb(85,96,128)"/><path d=" M 242.731 149.53 C 237.939 149.731 233.89 146.009 233.689 141.217 C 233.488 136.424 237.21 132.375 242.002 132.174 C 264.994 130.5 287.818 127.019 310.263 121.761 C 314.896 120.607 319.591 123.412 320.77 128.038 C 321.949 132.664 319.17 137.374 314.55 138.578 C 291.183 144.08 267.419 147.733 243.478 149.504 L 242.731 149.53 Z " fill="rgb(85,96,128)"/><path d=" M 34.712 147.525 C 29.919 147.525 26.034 143.64 26.034 138.847 L 26.034 121.492 C 26.034 116.699 29.919 112.814 34.712 112.814 C 39.505 112.814 43.39 116.699 43.39 121.492 L 43.39 138.847 C 43.39 143.64 39.505 147.525 34.712 147.525 Z " fill="rgb(85,96,128)"/><path d=" M 34.712 260.339 C 29.919 260.339 26.034 256.454 26.034 251.661 L 26.034 234.305 C 26.034 229.512 29.919 225.627 34.712 225.627 C 39.505 225.627 43.39 229.512 43.39 234.305 L 43.39 251.661 C 43.39 256.454 39.505 260.339 34.712 260.339 Z " fill="rgb(66,74,96)"/><path d=" M 34.712 373.153 C 29.919 373.153 26.034 369.267 26.034 364.475 L 26.034 347.119 C 26.034 342.326 29.919 338.441 34.712 338.441 C 39.505 338.441 43.39 342.326 43.39 347.119 L 43.39 364.475 C 43.39 369.267 39.505 373.153 34.712 373.153 Z " fill="rgb(85,96,128)"/><path d=" M 337.955 234.305 C 386.664 234.305 427.129 273.356 434.28 324.105 C 473.678 331.125 503.825 368.362 503.825 413.115 C 503.825 462.857 466.58 503.365 420.786 503.365 L 156.403 503.365 C 118.02 503.322 86.78 469.391 86.78 427.694 C 86.78 385.996 118.02 352.065 156.403 352.065 L 157.817 352.065 C 163.467 311.192 196.001 279.743 235.199 279.743 C 242.253 279.746 249.27 280.777 256.026 282.806 C 272.766 253.219 303.963 234.75 337.955 234.305 Z " fill="rgb(240,196,25)"/><ellipse vector-effect="non-scaling-stroke" cx="173.5593220338983" cy="34.71186440677966" rx="173.5593220338983" ry="34.71186440677966" fill="rgb(127,171,218)"/></g></g></svg>
